icons/clipboard-person-outline.svg

<svg xmlns="http://www.w3.org/2000/svg" width="24" height="24" viewBox="0 0 24 24">
  <path d="M16,1 C16.5128358,1 16.9355072,1.38604019 16.9932723,1.88337887 L17,2 L17,3 L18,3 C19.5976809,3 20.9036609,4.24891996 20.9949073,5.82372721 L21,6 L21,20 C21,21.5976809 19.75108,22.9036609 18.1762728,22.9949073 L18,23 L6,23 C4.40231912,23 3.09633912,21.75108 3.00509269,20.1762728 L3,20 L3,6 C3,4.40231912 4.24891996,3.09633912 5.82372721,3.00509269 L6,3 L7,3 L7,2 C7,1.48716416 7.38604019,1.06449284 7.88337887,1.00672773 L8,1 L16,1 Z M7,5 L6,5 C5.48716416,5 5.06449284,5.38604019 5.00672773,5.88337887 L5,6 L5,20 C5,20.5128358 5.38604019,20.9355072 5.88337887,20.9932723 L6,21 L18,21 C18.5128358,21 18.9355072,20.6139598 18.9932723,20.1166211 L19,20 L19,6 C19,5.44771525 18.5522847,5 18,5 L17,5 L17,6 C17,6.51283584 16.6139598,6.93550716 16.1166211,6.99327227 L16,7 L8,7 C7.48716416,7 7.06449284,6.61395981 7.00672773,6.11662113 L7,6 L7,5 Z M13,15 C14.5,15 15.5,15.9644661 15.5,17 C15.5,17.4722222 15.5,17.9444444 14.6575789,17.9954561 L14.5,18 L9.5,18 C8.5,18 8.5,17.5 8.5,17 C8.5,16.0076133 9.41840278,15.0804956 10.8151403,15.0049586 L11,15 L13,15 Z M12,10 C13.1045695,10 14,10.8954305 14,12 C14,13.1045695 13.1045695,14 12,14 C10.8954305,14 10,13.1045695 10,12 C10,10.8954305 10.8954305,10 12,10 Z M15,3 L9,3 L9,5 L15,5 L15,3 Z"/>
</svg>

<svg xmlns="http://www.w3.org/2000/svg" viewBox="0 0 24 24">
  <path d="M16 1a1 1 0 0 1 1 .88V3h1a3 3 0 0 1 3 2.82V20a3 3 0 0 1-2.82 3H6a3 3 0 0 1-3-2.82V6a3 3 0 0 1 2.82-3H7V2a1 1 0 0 1 .88-1H16zM7 5H6a1 1 0 0 0-1 .88V20a1 1 0 0 0 .88 1H18a1 1 0 0 0 1-.88V6a1 1 0 0 0-1-1h-1v1a1 1 0 0 1-.88 1H8a1 1 0 0 1-1-.88V5zm6 10c1.5 0 2.5.96 2.5 2 0 .47 0 .94-.84 1H9.5c-1 0-1-.5-1-1 0-1 .92-1.92 2.32-2H13zm-1-5a2 2 0 1 1 0 4 2 2 0 0 1 0-4zm3-7H9v2h6V3z"/>
</svg>
